src/assets/headPuzzle.svg

<svg width="300" height="300" viewBox="0 0 300 300" fill="none" xmlns="http://www.w3.org/2000/svg">
<g clip-path="url(#clip0)">
<path d="M7.35893 186.955C9.00284 188.097 10.7388 189.101 12.5489 189.955C14.7089 191.06 18.3339 192.91 18.5889 194.205C18.9032 195.914 18.6977 197.679 17.9989 199.27C17.2539 200.87 16.4739 202.245 15.7989 203.43C13.9689 206.665 10.9039 212.085 15.5239 215.86C16.6039 216.86 18.4689 218.305 20.1689 219.61C18.9175 221.798 18.3514 224.312 18.5439 226.825C18.8092 228.805 19.8827 230.586 21.5089 231.745C22.6189 232.525 23.8039 233.205 24.9689 233.87C27.9289 235.55 29.0839 236.335 29.4689 237.905C29.7467 239.917 29.576 241.966 28.9689 243.905C28.6739 245.24 28.3889 246.58 28.2189 247.905C27.7224 252.462 28.2854 257.072 29.8639 261.375C32.113 269.319 39.2987 274.854 47.5539 275C48.9319 274.996 50.3058 274.85 51.6539 274.565C65.9378 271.179 80.0132 266.967 93.8089 261.95C105.074 268.56 112.189 288.66 114.044 296.205C114.598 298.435 116.601 300.001 118.899 300L244.399 299.65C245.989 299.647 247.484 298.887 248.423 297.604C249.363 296.321 249.636 294.667 249.159 293.15C247.923 289.762 246.218 286.564 244.094 283.65C242.895 281.922 241.814 280.114 240.859 278.24C238.594 273.658 236.706 268.899 235.214 264.01C232.359 254.351 230.379 244.454 229.299 234.44C227.994 222.859 229.1 211.133 232.549 200H244.999C253.283 200 259.999 193.284 259.999 185V120C259.999 117.239 257.76 115 254.999 115H234.819C234.936 114.172 234.997 113.336 234.999 112.5C234.999 102.835 227.164 95 217.499 95C207.834 95 199.999 102.835 199.999 112.5C200.001 113.336 200.061 114.172 200.179 115H184.999V99.825C187.762 100.218 190.578 99.9529 193.219 99.05C198.927 97.106 203.218 92.34 204.554 86.46C205.862 80.8289 204.305 74.9149 200.394 70.6581C196.482 66.4013 190.72 64.3511 184.999 65.18V45C184.999 42.2386 182.76 40 179.999 40H114.999C106.715 40 99.9989 46.7157 99.9989 55V185C99.9989 193.284 106.715 200 114.999 200H222.049C218.902 211.606 217.998 223.705 219.384 235.65C220.537 246.267 222.642 256.76 225.674 267C227.319 272.375 229.394 277.608 231.879 282.65C233.02 284.914 234.314 287.098 235.754 289.185L236.089 289.685L122.679 290C119.36 278.139 113.335 267.209 105.079 258.07L109.579 256.495C112.929 255.325 115.454 254.445 116.749 254.03C138.169 247.255 148.879 237.5 148.589 225.03C148.524 222.269 146.233 220.083 143.471 220.147C140.71 220.212 138.524 222.504 138.589 225.265C138.709 230.41 134.494 237.915 113.709 244.49C112.354 244.925 109.744 245.835 106.279 247.045C102.564 248.345 97.8389 249.995 92.6289 251.765H92.5939C78.5229 256.923 64.1657 261.263 49.5939 264.765C44.9411 265.648 40.4181 262.71 39.3339 258.1C38.2658 255.256 37.8638 252.204 38.1589 249.18C38.2889 248.13 38.5289 247.09 38.7589 246.045C39.7778 242.588 39.9272 238.933 39.1939 235.405C37.7397 230.812 34.36 227.078 29.9339 225.175L28.8989 224.585C29.4388 223.495 30.0835 222.46 30.8239 221.495C31.6627 220.432 32.0346 219.075 31.8547 217.733C31.6747 216.391 30.9582 215.179 29.8689 214.375C28.6689 213.495 25.8389 211.375 23.7689 209.705C24.0089 209.27 24.2689 208.79 24.5189 208.355C25.3039 206.98 26.1989 205.38 27.0739 203.53C28.6562 200.025 29.1222 196.119 28.4089 192.34C27.2089 186.24 21.3639 183.25 17.1039 181.07C15.6654 180.386 14.2858 179.585 12.9789 178.675C11.9158 177.956 10.9185 177.145 9.99893 176.25C9.99893 175.49 10.8139 173.65 14.6239 169.015C23.5793 157.486 31.2575 145.02 37.5239 131.835C38.6956 129.769 39.3557 127.453 39.4489 125.08C38.9325 120.054 36.2692 115.497 32.1439 112.58C30.1439 110.725 28.2189 108.975 27.9939 107.345C28.0271 106.165 28.2921 105.003 28.7739 103.925C29.5889 101.78 30.5289 99.68 31.4739 97.575C33.5242 93.3475 35.1618 88.932 36.3639 84.39L36.8639 82.26C37.9194 77.2613 39.2802 72.3321 40.9389 67.5C44.8804 56.6213 50.9829 46.6528 58.8789 38.195C68.4439 28.075 83.4989 20.915 103.699 16.9C119.145 13.5084 134.819 11.2507 150.594 10.145C173.376 9.00695 195.931 15.1406 214.999 27.66V32.5C214.999 34.3939 216.069 36.1252 217.763 36.9721C219.457 37.8191 221.484 37.6363 222.999 36.5C226.266 34.1948 230.754 34.7701 233.334 37.825C234.787 39.6417 235.32 42.0275 234.779 44.29C234.192 46.752 232.39 48.7446 229.999 49.575C227.623 50.4119 224.986 50.0087 222.969 48.5C221.454 47.3814 219.439 47.2088 217.756 48.0535C216.073 48.8982 215.007 50.6169 214.999 52.5V75C214.999 80.5228 219.476 85 224.999 85H247.499C249.393 85 251.124 83.93 251.971 82.2361C252.818 80.5422 252.635 78.5151 251.499 77C249.178 73.9058 249.591 69.5544 252.452 66.9519C255.313 64.3494 259.684 64.3494 262.546 66.9519C265.407 69.5544 265.82 73.9058 263.499 77C262.363 78.5151 262.18 80.5422 263.027 82.2361C263.874 83.93 265.605 85 267.499 85H294.999C297.76 85 299.999 82.7614 299.999 80V15C299.999 6.71573 293.283 0 284.999 0H219.999C217.238 0 214.999 2.23858 214.999 5V15.685C195.298 4.3931 172.767 -0.99763 150.089 0.155C133.819 1.28344 117.654 3.60299 101.724 7.095C79.1789 11.595 62.7939 19.5 51.6089 31.32C42.786 40.7609 35.9642 51.8891 31.5539 64.035C29.7533 69.2614 28.2739 74.593 27.1239 80L26.6239 82.11C25.5568 86.0315 24.1256 89.8448 22.3489 93.5C21.3489 95.78 20.3089 98.06 19.4139 100.42C18.2632 103.047 17.8086 105.926 18.0939 108.78C19.1 113.261 21.6861 117.23 25.3789 119.96C27.8239 122.2 29.4289 123.78 29.4489 125.155C29.27 125.915 28.9838 126.646 28.5989 127.325C22.6113 139.931 15.277 151.852 6.72393 162.88C3.09893 167.29 -0.701068 172.435 0.0989324 177.585C1.15953 181.558 3.7767 184.936 7.35893 186.955ZM109.999 55C109.999 52.2386 112.238 50 114.999 50H174.999V72.5C174.999 74.3939 176.069 76.1252 177.763 76.9721C179.457 77.8191 181.484 77.6363 182.999 76.5C186.266 74.1948 190.754 74.7701 193.334 77.825C194.787 79.6417 195.32 82.0275 194.779 84.29C194.192 86.752 192.39 88.7446 189.999 89.575C187.615 90.4116 184.971 90.0006 182.954 88.48C181.436 87.3681 179.423 87.2022 177.744 88.0508C176.065 88.8993 175.004 90.6186 174.999 92.5V115H159.829C160.216 112.24 159.949 109.428 159.049 106.79C157.109 101.078 152.345 96.7814 146.464 95.44C141.262 94.2299 135.792 95.4617 131.61 98.7849C127.429 102.108 124.994 107.159 124.999 112.5C125.001 113.336 125.061 114.172 125.179 115H109.999V55ZM109.999 185V125H132.499C134.393 125 136.124 123.93 136.971 122.236C137.818 120.542 137.635 118.515 136.499 117C134.082 113.76 134.668 109.186 137.824 106.66C139.643 105.208 142.031 104.676 144.294 105.22C146.757 105.803 148.749 107.607 149.574 110C150.417 112.382 150.003 115.028 148.474 117.04C147.359 118.558 147.191 120.575 148.042 122.256C148.892 123.938 150.615 124.998 152.499 125H174.999V140.18C168.215 139.199 161.483 142.27 157.776 148.035C154.069 153.801 154.069 161.199 157.776 166.965C161.483 172.73 168.215 175.801 174.999 174.82V190H114.999C112.238 190 109.999 187.761 109.999 185ZM182.224 163C180.521 162.164 178.493 162.358 176.979 163.5C173.885 165.821 169.533 165.408 166.931 162.547C164.328 159.685 164.328 155.315 166.931 152.453C169.533 149.592 173.885 149.179 176.979 151.5C178.494 152.636 180.521 152.819 182.215 151.972C183.909 151.125 184.979 149.394 184.979 147.5V125H207.479C209.373 125 211.104 123.93 211.951 122.236C212.798 120.542 212.615 118.515 211.479 117C209.158 113.906 209.571 109.554 212.432 106.952C215.293 104.349 219.664 104.349 222.526 106.952C225.387 109.554 225.8 113.906 223.479 117C222.343 118.515 222.16 120.542 223.007 122.236C223.854 123.93 225.585 125 227.479 125H249.999V185C249.999 187.761 247.76 190 244.999 190H184.999V167.5C185.007 165.594 183.931 163.848 182.224 163ZM224.999 10H284.999C287.76 10 289.999 12.2386 289.999 15V75H274.819C274.936 74.1718 274.997 73.3365 274.999 72.5C274.999 62.835 267.164 55 257.499 55C247.834 55 239.999 62.835 239.999 72.5C240.001 73.3365 240.061 74.1718 240.179 75H224.999V59.825C227.762 60.2187 230.578 59.9531 233.219 59.05C238.927 57.106 243.218 52.34 244.554 46.46C245.862 40.8289 244.305 34.9149 240.394 30.6581C236.482 26.4013 230.72 24.3511 224.999 25.18V10Z" fill="#3DB2FF"/>
<path d="M55.8299 88.955L56.3299 86.785C57.2172 82.6059 58.3424 78.4809 59.6999 74.43C62.7078 66.073 67.3881 58.417 73.4549 51.93C77.3459 48.0171 81.9664 44.905 87.0549 42.77C88.7413 42.0761 89.9162 40.5192 90.1208 38.7071C90.3254 36.8951 89.5273 35.1153 88.038 34.0629C86.5488 33.0104 84.6047 32.8522 82.9649 33.65C76.6728 36.3148 70.9687 40.1957 66.1799 45.07C59.1786 52.5428 53.7766 61.3663 50.3049 71C48.7961 75.4415 47.549 79.9676 46.5699 84.555L46.0699 86.755C45.7714 88.0515 46.0019 89.4135 46.7104 90.5396C47.4189 91.6657 48.5469 92.463 49.8449 92.755C50.2073 92.8382 50.578 92.8802 50.9499 92.88C53.2959 92.8786 55.3255 91.2462 55.8299 88.955Z" fill="#3DB2FF"/>
<path d="M45 110C47.7614 110 50 107.761 50 105C50 102.239 47.7614 100 45 100C42.2386 100 40 102.239 40 105C40 107.761 42.2386 110 45 110Z" fill="#3DB2FF"/>
</g>
<defs>
<clipPath id="clip0">
<rect width="300" height="300" fill="white"/>
</clipPath>
</defs>
</svg>

<svg width="300" height="300" fill="none" xmlns="http://www.w3.org/2000/svg"><g clip-path="url(#a)" fill="#3DB2FF"><path d="M7.359 186.955a36.087 36.087 0 0 0 5.19 3c2.16 1.105 5.785 2.955 6.04 4.25a8.69 8.69 0 0 1-.59 5.065c-.745 1.6-1.525 2.975-2.2 4.16-1.83 3.235-4.895 8.655-.275 12.43 1.08 1 2.945 2.445 4.645 3.75a12.596 12.596 0 0 0-1.625 7.215 7.219 7.219 0 0 0 2.965 4.92c1.11.78 2.295 1.46 3.46 2.125 2.96 1.68 4.115 2.465 4.5 4.035a13.775 13.775 0 0 1-.5 6c-.295 1.335-.58 2.675-.75 4a29.755 29.755 0 0 0 1.645 13.47A18.73 18.73 0 0 0 47.554 275a20.105 20.105 0 0 0 4.1-.435 379.406 379.406 0 0 0 42.155-12.615c11.265 6.61 18.38 26.71 20.235 34.255a5 5 0 0 0 4.855 3.795l125.5-.35a5 5 0 0 0 4.76-6.5 38.57 38.57 0 0 0-5.065-9.5 46.632 46.632 0 0 1-3.235-5.41 94.08 94.08 0 0 1-5.645-14.23 167.797 167.797 0 0 1-5.915-29.57 84.432 84.432 0 0 1 3.25-34.44h12.45c8.284 0 15-6.716 15-15v-65a5 5 0 0 0-5-5h-20.18c.117-.828.178-1.664.18-2.5 0-9.665-7.835-17.5-17.5-17.5s-17.5 7.835-17.5 17.5c.002.836.062 1.672.18 2.5h-15.18V99.825c2.763.393 5.579.128 8.22-.775a17.365 17.365 0 0 0 11.335-12.59 17.501 17.501 0 0 0-19.555-21.28V45a5 5 0 0 0-5-5h-65c-8.284 0-15 6.716-15 15v130c0 8.284 6.716 15 15 15h107.05a94.57 94.57 0 0 0-2.665 35.65 178.186 178.186 0 0 0 6.29 31.35 104.724 104.724 0 0 0 6.205 15.65 55.44 55.44 0 0 0 3.875 6.535l.335.5-113.41.315a79.653 79.653 0 0 0-17.6-31.93l4.5-1.575c3.35-1.17 5.875-2.05 7.17-2.465 21.42-6.775 32.13-16.53 31.84-29a5.002 5.002 0 0 0-10 .235c.12 5.145-4.095 12.65-24.88 19.225-1.355.435-3.965 1.345-7.43 2.555-3.715 1.3-8.44 2.95-13.65 4.72h-.035a389.134 389.134 0 0 1-43 13 8.846 8.846 0 0 1-10.26-6.665 19.88 19.88 0 0 1-1.175-8.92c.13-1.05.37-2.09.6-3.135a21.884 21.884 0 0 0 .435-10.64 16.585 16.585 0 0 0-9.26-10.23l-1.035-.59a18.743 18.743 0 0 1 1.925-3.09 5 5 0 0 0-.955-7.12c-1.2-.88-4.03-3-6.1-4.67.24-.435.5-.915.75-1.35.785-1.375 1.68-2.975 2.555-4.825a18.744 18.744 0 0 0 1.335-11.19c-1.2-6.1-7.045-9.09-11.305-11.27a29.048 29.048 0 0 1-4.125-2.395 21.708 21.708 0 0 1-2.98-2.425c0-.76.815-2.6 4.625-7.235a201.854 201.854 0 0 0 22.9-37.18 14.876 14.876 0 0 0 1.925-6.755 17.5 17.5 0 0 0-7.305-12.5c-2-1.855-3.925-3.605-4.15-5.235a9.002 9.002 0 0 1 .78-3.42c.815-2.145 1.755-4.245 2.7-6.35a73.038 73.038 0 0 0 4.89-13.185l.5-2.13a125.008 125.008 0 0 1 4.075-14.76 85.745 85.745 0 0 1 17.94-29.305c9.565-10.12 24.62-17.28 44.82-21.295a324.43 324.43 0 0 1 46.895-6.755 107.57 107.57 0 0 1 64.405 17.515v4.84a5 5 0 0 0 8 4 7.71 7.71 0 0 1 10.335 1.325 7.542 7.542 0 0 1 1.445 6.465 7.415 7.415 0 0 1-4.78 5.285 7.55 7.55 0 0 1-7.03-1.075 5 5 0 0 0-7.97 4V75c0 5.523 4.477 10 10 10h22.5a5 5 0 0 0 4-8 7.5 7.5 0 0 1 11.047-10.048A7.5 7.5 0 0 1 263.499 77a5 5 0 0 0 4 8h27.5a5 5 0 0 0 5-5V15c0-8.284-6.716-15-15-15h-65a5 5 0 0 0-5 5v10.685a118.44 118.44 0 0 0-64.91-15.53 333.703 333.703 0 0 0-48.365 6.94c-22.545 4.5-38.93 12.405-50.115 24.225a95.803 95.803 0 0 0-20.055 32.715A135.645 135.645 0 0 0 27.124 80l-.5 2.11a65.236 65.236 0 0 1-4.275 11.39c-1 2.28-2.04 4.56-2.935 6.92a16.696 16.696 0 0 0-1.32 8.36 19.11 19.11 0 0 0 7.285 11.18c2.445 2.24 4.05 3.82 4.07 5.195a8.22 8.22 0 0 1-.85 2.17A193.428 193.428 0 0 1 6.724 162.88c-3.625 4.41-7.425 9.555-6.625 14.705a15.28 15.28 0 0 0 7.26 9.37ZM109.999 55a5 5 0 0 1 5-5h60v22.5a5 5 0 0 0 8 4 7.71 7.71 0 0 1 10.335 1.325 7.542 7.542 0 0 1 1.445 6.465 7.415 7.415 0 0 1-4.78 5.285 7.55 7.55 0 0 1-7.045-1.095 5 5 0 0 0-7.955 4.02V115h-15.17c.387-2.76.12-5.572-.78-8.21a17.371 17.371 0 0 0-12.585-11.35A17.502 17.502 0 0 0 125.179 115h-15.18V55Zm0 130v-60h22.5a5 5 0 0 0 4-8 7.5 7.5 0 0 1 1.325-10.34 7.545 7.545 0 0 1 6.47-1.44 7.384 7.384 0 0 1 5.28 4.78 7.5 7.5 0 0 1-1.1 7.04 4.999 4.999 0 0 0 4.025 7.96h22.5v15.18a17.5 17.5 0 1 0 0 34.64V190h-60a5 5 0 0 1-5-5Zm72.225-22a5.03 5.03 0 0 0-5.245.5 7.5 7.5 0 0 1-10.048-11.047 7.5 7.5 0 0 1 10.048-.953 5 5 0 0 0 8-4V125h22.5a5 5 0 0 0 4-8 7.5 7.5 0 0 1 11.047-10.048 7.5 7.5 0 0 1 .953 10.048 5 5 0 0 0 4 8h22.52v60a5 5 0 0 1-5 5h-60v-22.5a5.001 5.001 0 0 0-2.775-4.5Zm42.775-153h60a5 5 0 0 1 5 5v60h-15.18c.117-.828.178-1.663.18-2.5 0-9.665-7.835-17.5-17.5-17.5s-17.5 7.835-17.5 17.5c.002.837.062 1.672.18 2.5h-15.18V59.825a17.69 17.69 0 0 0 8.22-.775 17.365 17.365 0 0 0 11.335-12.59 17.501 17.501 0 0 0-19.555-21.28V10Z"/><path d="m55.83 88.955.5-2.17c.887-4.18 2.012-8.304 3.37-12.355a65.331 65.331 0 0 1 13.755-22.5 42.211 42.211 0 0 1 13.6-9.16 5 5 0 1 0-4.09-9.12A51.91 51.91 0 0 0 66.18 45.07 75.229 75.229 0 0 0 50.305 71a120.04 120.04 0 0 0-3.735 13.555l-.5 2.2a5 5 0 0 0 3.775 6 5 5 0 0 0 5.985-3.8ZM45 110a5 5 0 1 0 0-10 5 5 0 0 0 0 10Z"/></g><defs><clipPath id="a"><path fill="#fff" d="M0 0h300v300H0z"/></clipPath></defs></svg>
